src/4-icons/position.svg

<svg width="260" height="260" viewBox="0 0 260 260" fill="none" xmlns="http://www.w3.org/2000/svg">
<g opacity="0.9">
<path fill-rule="evenodd" clip-rule="evenodd" d="M77.0374 21.662C90.6044 8.28476 109.366 0 129.982 0H129.984C150.6 0 169.362 8.25097 182.963 21.6945C196.53 35.038 205 53.604 205 74.0352C205 77.863 204.404 81.7545 203.61 85.5486C202.817 89.3426 201.757 93.0028 200.732 96.2301C198.647 102.685 196.628 107.411 196.562 107.543C194.212 113.001 190.108 120.887 186.998 125.978L178.405 140H240C251.046 140 260 148.954 260 160V240C260 251.046 251.046 260 240 260H20C8.9543 260 0 251.046 0 240V160C0 148.954 8.9543 140 20 140H81.7933L73.1674 125.844C70.2215 121.019 65.7544 113.234 63.0412 108.275C63.0285 108.248 62.9984 108.189 62.9528 108.101C62.0492 106.343 55.0308 92.6904 55 74.0027C55 53.5715 63.4704 35.0055 77.0374 21.662ZM90.3243 154H29C20.7157 154 14 160.716 14 169V231C14 239.284 20.7157 246 29 246H231C239.284 246 246 239.284 246 231V169C246 160.716 239.284 154 231 154H169.826L156.025 176.521C154.665 178.739 152.905 181.61 151.123 184.517C149.135 187.762 147.12 191.051 145.602 193.525L140.803 201.344C139.679 203.173 138.223 204.804 136.37 206.035C134.55 207.267 132.3 207.999 129.983 207.999C127.666 208.032 125.383 207.266 123.563 206.035C121.711 204.804 120.255 203.174 119.129 201.31L114.365 193.491C112.995 191.233 111.203 188.288 109.396 185.318C107.448 182.118 105.483 178.888 104.007 176.455L90.3243 154ZM186.698 96.1625C188.022 92.4686 189.612 87.5437 190.637 82.7527H190.639C191.333 79.5592 191.73 76.4644 191.664 73.9689C191.664 57.2642 184.783 42.1257 173.598 31.1114C162.413 20.0984 146.994 13.2772 129.919 13.2772C112.843 13.2772 97.4241 20.0971 86.2393 31.1114C75.0558 42.1582 68.1728 57.2655 68.1728 73.9689C68.1392 89.4076 74.3604 101.488 74.5918 101.853C77.1408 106.511 81.608 114.297 84.3871 118.823L115.227 169.433C116.597 171.692 118.39 174.637 120.197 177.608C122.144 180.808 124.109 184.037 125.585 186.47L129.919 193.557L134.253 186.47C135.613 184.252 137.373 181.38 139.155 178.472C141.143 175.228 143.158 171.94 144.676 169.466L175.616 118.989C178.229 114.73 182.365 106.778 184.351 102.186L184.383 102.119L184.515 101.819C184.565 101.669 184.64 101.493 184.727 101.288C184.814 101.085 184.912 100.853 185.011 100.588C185.441 99.5562 186.036 97.9926 186.698 96.1625Z" fill="black"/>
<path fill-rule="evenodd" clip-rule="evenodd" d="M130 113C109.013 113 92 95.9868 92 75C92 54.0132 109.013 37 130 37C150.987 37 168 54.0132 168 75C168 95.9868 150.987 113 130 113ZM130 99C116.745 99 106 88.2548 106 75C106 61.7452 116.745 51 130 51C143.255 51 154 61.7452 154 75C154 88.2548 143.255 99 130 99Z" fill="black"/>
</g>
</svg>

<svg width="260" height="260" viewBox="0 0 260 260" fill="none" xmlns="http://www.w3.org/2000/svg"><g opacity=".9" fill-rule="evenodd" clip-rule="evenodd" fill="#000"><path d="M77.037 21.662C90.604 8.285 109.366 0 129.982 0h.002c20.616 0 39.378 8.251 52.979 21.695C196.53 35.038 205 53.603 205 74.035c0 3.828-.596 7.72-1.39 11.514-.793 3.794-1.853 7.454-2.878 10.681-2.085 6.455-4.104 11.181-4.17 11.313-2.35 5.458-6.454 13.344-9.564 18.435L178.405 140H240c11.046 0 20 8.954 20 20v80c0 11.046-8.954 20-20 20H20c-11.046 0-20-8.954-20-20v-80c0-11.046 8.954-20 20-20h61.793l-8.626-14.156c-2.945-4.825-7.413-12.61-10.126-17.569a6.931 6.931 0 0 0-.088-.174c-.904-1.758-7.922-15.41-7.953-34.098 0-20.431 8.47-38.998 22.037-52.341ZM90.324 154H29c-8.284 0-15 6.716-15 15v62c0 8.284 6.716 15 15 15h202c8.284 0 15-6.716 15-15v-62c0-8.284-6.716-15-15-15h-61.174l-13.801 22.521a86500.89 86500.89 0 0 0-10.423 17.004l-4.799 7.819c-1.124 1.829-2.58 3.46-4.433 4.691a11.49 11.49 0 0 1-6.387 1.964c-2.317.033-4.6-.733-6.42-1.964-1.852-1.231-3.308-2.861-4.434-4.725l-4.764-7.819c-1.37-2.258-3.162-5.203-4.969-8.173-1.948-3.2-3.913-6.43-5.389-8.863L90.324 154Zm96.374-57.838c1.324-3.693 2.914-8.618 3.939-13.41h.002c.694-3.193 1.091-6.288 1.025-8.783 0-16.705-6.881-31.843-18.066-42.858-11.185-11.013-26.604-17.834-43.679-17.834-17.076 0-32.495 6.82-43.68 17.834C75.056 42.158 68.173 57.266 68.173 73.97c-.034 15.439 6.187 27.519 6.419 27.884 2.549 4.658 7.016 12.444 9.795 16.97l30.84 50.61c1.37 2.259 3.163 5.204 4.97 8.175 1.947 3.2 3.912 6.429 5.388 8.862l4.334 7.087 4.334-7.087 4.902-7.998c1.988-3.244 4.003-6.532 5.521-9.006l30.94-50.477c2.613-4.259 6.749-12.211 8.735-16.803l.032-.067.132-.3c.05-.15.125-.326.212-.531.087-.203.185-.435.284-.7.43-1.032 1.025-2.595 1.687-4.425Z"/><path d="M130 113c-20.987 0-38-17.013-38-38s17.013-38 38-38 38 17.013 38 38-17.013 38-38 38Zm0-14c-13.255 0-24-10.745-24-24s10.745-24 24-24 24 10.745 24 24-10.745 24-24 24Z"/></g></svg>
